X: 36134
T: Scot's March, The
R: jig
M: 6/8
K: Gmajor
|:e|d>BG A>FD|G2G g2b|a>fd e2A|d>de d2e|
d>BG A>FD|G3 b3|a>fd e>dA|d>de d2:|
|:d|d>ef g2G|A2A e2e|d>BG A>FD|G>AB G2d|
d>ef g2G|A3 e3|d>BG A>FD|G2B G2:|

